brandFactory_export/1.Light/Eliminar_papelera_1Light.svg

<?xml version="1.0" encoding="UTF-8"?>
<svg width="24px" height="24px" viewBox="0 0 24 24" version="1.1" xmlns="http://www.w3.org/2000/svg" xmlns:xlink="http://www.w3.org/1999/xlink">
    <title>1.Light/Eliminar_papelera_1Light</title>
    <g id="Symbols" stroke="none" stroke-width="1" fill="none" fill-rule="evenodd">
        <g id="1.Light/Eliminar_papelera_1Light" fill="#5CB615" fill-rule="nonzero">
            <path d="M20.1277311,19.8689076 L20.1277311,6.01344538 L3.50588235,6.01344538 L3.50588235,19.8890756 C3.50588235,19.9394958 3.43865546,21.1159664 4.18151261,21.892437 C4.64537815,22.3831933 5.34117647,22.6386555 6.24537815,22.6386555 L17.3546218,22.6386555 C17.394958,22.6386555 18.6016807,22.6789916 19.3983193,21.902521 C19.8823529,21.4420168 20.1277311,20.7529412 20.1277311,19.8689076 L20.1277311,19.8689076 Z M7.28061226,2.56806723 L7.28061226,5.03193277 L16.3563025,5.03193277 L16.3563025,2.57478992 C16.3563025,2.53445378 16.3966387,1.78823529 15.9731092,1.33781513 C15.7478992,1.09243697 15.4218487,0.98487395 14.9815126,0.98487395 L8.62521008,0.98487395 C8.57478992,0.98487395 8.06386555,0.944537815 7.70084034,1.28067227 C7.41512605,1.53613445 7.27731092,1.96638655 7.28061226,2.56806723 Z M23.1327731,5.03193277 C23.405042,5.0487395 23.610084,5.28403361 23.5932773,5.55294118 C23.5764706,5.80168067 23.3815126,5.99663866 23.1327731,6.01344538 L21.1092437,6.01344538 L21.1092437,19.8689076 C21.1092437,21.0386555 20.7563025,21.9630252 20.0672269,22.6184874 C19.0957983,23.5630252 17.7478992,23.6201681 17.4151261,23.6201681 L6.2487395,23.6201681 C5.0487395,23.6201681 4.11764706,23.2672269 3.45882353,22.5579832 C2.42689076,21.4588235 2.52436975,19.9159664 2.52436975,19.8554622 L2.52436975,6.01344538 L0.490756303,6.01344538 C0.218487395,5.99663866 0.0134453782,5.76134454 0.0302521008,5.49243697 C0.0470588235,5.24369748 0.242016807,5.0487395 0.490756303,5.03193277 L6.29579832,5.03193277 L6.29579832,2.56806723 C6.29579832,1.67394958 6.54117647,0.994957983 7.04201681,0.544537815 C7.74117647,-0.0739495798 8.63529412,0.00336134454 8.67226891,0.00336134454 L14.9781513,0.00336134454 C15.7042017,0.00336134454 16.2756303,0.228571429 16.6890756,0.672268908 C17.405042,1.43865546 17.3378151,2.56806723 17.3378151,2.61512605 L17.3378151,5.03193277 L23.1327731,5.03193277 Z M9.29747899,18.5983193 C9.02521008,18.5983193 8.80672269,18.3798319 8.80672269,18.107563 L8.80672269,10.5579832 C8.82352941,10.2857143 9.05882353,10.0806723 9.32773109,10.097479 C9.57647059,10.1142857 9.77142857,10.3092437 9.78823529,10.5579832 L9.78823529,18.107563 C9.78823529,18.3798319 9.5697479,18.5983193 9.29747899,18.5983193 L9.29747899,18.5983193 Z M14.3294118,18.5983193 C14.0571429,18.5983193 13.8386555,18.3798319 13.8386555,18.107563 L13.8386555,10.5579832 C13.8554622,10.2857143 14.0907563,10.0806723 14.3596639,10.097479 C14.6084034,10.1142857 14.8033613,10.3092437 14.8201681,10.5579832 L14.8201681,18.107563 C14.8201681,18.3798319 14.6016807,18.5983193 14.3294118,18.5983193 L14.3294118,18.5983193 Z" id="Eliminar_papelera_1Light"></path>
        </g>
    </g>
</svg>

<svg width="24" height="24" viewBox="0 0 24 24" xmlns="http://www.w3.org/2000/svg"><path d="M20.128 19.869V6.013H3.506V19.89c0 .05-.067 1.227.676 2.003.463.491 1.16.747 2.063.747h11.11c.04 0 1.247.04 2.043-.736.484-.461.73-1.15.73-2.034zM7.28 2.569v2.463h9.075V2.575c0-.04.04-.787-.383-1.237-.225-.246-.551-.353-.991-.353H8.625c-.05 0-.561-.04-.924.296-.286.255-.424.685-.42 1.287zm15.852 2.463a.492.492 0 010 .981h-2.024V19.87c0 1.17-.353 2.094-1.042 2.75-.971.944-2.32 1.001-2.652 1.001H6.25c-1.2 0-2.131-.353-2.79-1.062-1.032-1.1-.935-2.642-.935-2.703V6.013H.491a.492.492 0 010-.981h5.805V2.568c0-.894.245-1.573.746-2.023.7-.619 1.593-.542 1.63-.542h6.306c.726 0 1.298.226 1.711.67.716.766.649 1.895.649 1.942v2.417h5.795zM9.297 18.598a.49.49 0 01-.49-.49v-7.55a.492.492 0 01.981 0v7.55a.49.49 0 01-.49.49zm5.032 0a.49.49 0 01-.49-.49v-7.55a.492.492 0 01.981 0v7.55a.49.49 0 01-.49.49z" fill="#5CB615" fill-rule="nonzero"/></svg>
